dist/images/svg/vk.svg

<?xml version="1.0" encoding="UTF-8"?>
<svg width="24px" height="24px" viewBox="0 0 24 24" version="1.1" xmlns="http://www.w3.org/2000/svg" xmlns:xlink="http://www.w3.org/1999/xlink">
    <!-- Generator: Sketch 49.1 (51147) - http://www.bohemiancoding.com/sketch -->
    <title>Elements / Icons / S /  VK</title>
    <desc>Created with Sketch.</desc>
    <defs>
        <path d="M20.9045376,16.0310976 C20.8827416,15.9853587 20.8624228,15.9474188 20.8435483,15.9170221 C20.5312494,15.3693383 19.9344545,14.6970952 19.0535246,13.9001009 L19.0255903,13.8729005 C18.6069049,13.4926063 18.3537242,13.2430721 18.2476988,13.1153165 C18.0537019,12.8719512 18.0102413,12.6256134 18.1162667,12.3760153 C18.1911738,12.1874343 18.4725514,11.7891769 18.959743,11.1806997 C19.2160093,10.8582263 19.4189675,10.5997745 19.5688474,10.4050567 C20.649814,9.00572215 21.1184594,8.11152883 20.974685,7.72212515 L20.9188493,7.63112685 C20.7313518,7.4805178 20.4578769,7.53082736 20.4578769,7.52444278 C20.344143,7.52137434 20.1564239,7.52137434 19.8947196,7.52444278 L17.078933,7.52444278 C17.0497842,7.51438513 17.0145162,7.51651332 16.9731291,7.53082736 L16.9358397,7.55828347 C16.9045901,7.57643838 16.8702221,7.60836929 16.8327029,7.65401227 C16.7953807,7.69949544 16.7641639,7.75287344 16.7392168,7.81369878 C16.4453656,8.5498357 16.1112707,9.23425669 15.7363085,9.86692979 C15.5051206,10.2441876 15.2928072,10.5711358 15.0989088,10.8479662 C14.9052729,11.1247008 14.742821,11.3285919 14.6117172,11.4592881 C14.4804164,11.5901122 14.3619174,11.6949184 14.2554981,11.7740905 C14.1492429,11.8532945 14.0681319,11.8867596 14.0119679,11.8745178 C13.9556727,11.862276 13.90266,11.8501301 13.8524703,11.8379842 C13.7650568,11.7831999 13.6947452,11.7086944 13.6417325,11.614404 C13.5884901,11.5201135 13.5526449,11.4014353 13.5339018,11.2584654 C13.515257,11.1153996 13.5042278,10.9923425 13.5010766,10.8888787 C13.4981551,10.7855427 13.4995009,10.6393765 13.5058362,10.4507956 C13.5123356,10.2621187 13.515257,10.134459 13.515257,10.0675288 C13.515257,9.83630936 13.5198854,9.58536884 13.5291749,9.31464331 C13.5386286,9.04391778 13.5462769,8.82941495 13.5526778,8.6713905 C13.5590459,8.51320625 13.5620001,8.34584865 13.5620001,8.16941359 C13.5620001,7.99297853 13.5509709,7.85461126 13.5291749,7.75418391 C13.5076416,7.65388442 13.4745866,7.55652551 13.4310276,7.46213915 C13.3872059,7.36784867 13.3230655,7.2949094 13.2389017,7.24312955 C13.1545738,7.19141362 13.0497301,7.15037329 12.9249615,7.11988071 C12.5937881,7.04690947 12.1720827,7.00743532 11.6596485,7.00129845 C10.4976037,6.98915256 9.75092888,7.06221969 9.41978827,7.22040394 C9.28858595,7.28723831 9.16985721,7.37855624 9.06370052,7.49407006 C8.95120856,7.62796253 8.93551811,7.70102966 9.01672766,7.7130477 C9.39165708,7.76773617 9.65708164,7.89856021 9.81329676,8.10539196 L9.86959197,8.21499265 C9.91338079,8.29406879 9.95710395,8.43406618 10.0008599,8.63479301 C10.0445503,8.83551985 10.0727471,9.05756593 10.0851551,9.30080339 C10.116339,9.74499143 10.116339,10.1252218 10.0851551,10.4415263 C10.0538726,10.7579588 10.02433,11.0042966 9.99613311,11.1807317 C9.96793627,11.3571668 9.92578871,11.5001367 9.86959197,11.6096095 C9.81329676,11.7191143 9.77584321,11.7860446 9.75706719,11.8103364 C9.738324,11.8346281 9.72269921,11.8499384 9.71029128,11.8559474 C9.62908174,11.8862482 9.5446225,11.9016863 9.457209,11.9016863 C9.36966419,11.9016863 9.2635075,11.8590478 9.13857479,11.7738348 C9.01367491,11.6886217 8.8840482,11.5715737 8.74969466,11.4224989 C8.61534112,11.2733921 8.46382001,11.0650261 8.29506566,10.797369 C8.12644261,10.5297119 7.9514843,10.2133754 7.7702892,9.84835936 L7.62037652,9.58364285 C7.52666058,9.41334466 7.3986423,9.1653767 7.23619039,8.83996269 C7.07364001,8.51442084 6.92996411,8.19952262 6.80506423,7.89533196 C6.7551371,7.76757636 6.68013152,7.67031334 6.58017879,7.60338308 L6.53327158,7.57592697 C6.50208764,7.55163519 6.45202922,7.52584115 6.3833589,7.49835308 C6.31459011,7.47089697 6.24283422,7.45120785 6.16779582,7.43909392 L3.59991333,7.45724883 C3.33750869,7.45724883 3.15946482,7.51513359 3.06571605,7.6307433 L3.02819685,7.68543178 C3.00945366,7.71589239 3,7.76453988 3,7.8315021 C3,7.89843236 3.01874319,7.98057694 3.05626239,8.07783996 C3.43112616,8.93572346 3.83878231,9.76308242 4.27923083,10.5600447 C4.71967934,11.3570069 5.10242116,11.9989812 5.42722651,12.4853922 C5.7520975,12.9721548 6.08323811,13.4315572 6.42064833,13.8633756 C6.75805855,14.2953538 6.9814012,14.5721843 7.09067629,14.693803 C7.20008267,14.8156455 7.28601904,14.9067396 7.3484854,14.967565 L7.58282449,15.1865426 C7.73277,15.332581 7.95296144,15.5074818 8.24349727,15.7112451 C8.53409876,15.9151363 8.85581853,16.1158631 9.20882072,16.3137453 C9.56188856,16.5113078 9.97263027,16.6725285 10.4412756,16.7972157 C10.9098554,16.9220307 11.3659287,16.9721165 11.8095612,16.9479526 L12.8873438,16.9479526 C13.1059268,16.929574 13.2715299,16.8626437 13.3840875,16.7471299 L13.421377,16.701391 C13.4464554,16.6650812 13.4699254,16.6086667 13.4915901,16.5327549 C13.5135173,16.4567152 13.5244153,16.3729405 13.5244153,16.2818144 C13.5180144,16.0202622 13.5384645,15.784536 13.5852075,15.5746678 C13.6319178,15.3648635 13.6851603,15.2066792 13.7447052,15.100147 C13.8042173,14.9937106 13.8713776,14.9038949 13.9461206,14.8310835 C14.0210277,14.7581123 14.0744015,14.7139076 14.1057167,14.6986933 C14.136835,14.6833831 14.1616837,14.6729952 14.1804269,14.6667624 C14.3303724,14.6181149 14.5068406,14.6652282 14.7100943,14.808326 C14.9131838,14.9512959 15.1036684,15.1278268 15.2818436,15.3376311 C15.4599203,15.5476272 15.6738749,15.7832255 15.9237404,16.0447777 C16.1737699,16.3064258 16.3923857,16.5009199 16.579752,16.6288672 L16.7671182,16.738372 C16.8922478,16.8114392 17.0546998,16.8783694 17.2546709,16.9391948 C17.4542809,16.9999882 17.6291736,17.0152025 17.7793488,16.9848058 L20.1784442,16.9483681 C20.4157375,16.9483681 20.6003793,16.9101086 20.7313518,16.8341967 C20.862587,16.7581571 20.9405468,16.6743824 20.9656909,16.5832562 C20.9907694,16.4920342 20.9921152,16.3885384 20.9704506,16.2728328 C20.9482279,16.1574149 20.9263335,16.0767086 20.9045376,16.0310976 Z" id="path-1"></path>
    </defs>
    <g id="Symbols" stroke="none" stroke-width="1" fill="none" fill-rule="evenodd">
        <g id="Elements-/-Icons-/-S-/--VK">
            <mask id="mask-2" fill="white">
                <use xlink:href="#path-1"></use>
            </mask>
            <use id="Shape-Copy" fill="#fff" fill-rule="nonzero" xlink:href="#path-1"></use>
        </g>
    </g>
</svg>

<svg width="24" height="24" xmlns="http://www.w3.org/2000/svg" xmlns:xlink="http://www.w3.org/1999/xlink"><defs><path d="M20.905 16.031a1.19 1.19 0 0 0-.061-.114c-.313-.548-.91-1.22-1.79-2.017l-.028-.027c-.42-.38-.672-.63-.778-.758-.194-.243-.238-.49-.132-.739.075-.189.357-.587.844-1.195.256-.323.459-.581.609-.776 1.08-1.4 1.55-2.293 1.406-2.683l-.056-.09c-.188-.151-.461-.101-.461-.108a16.559 16.559 0 0 0-.563 0h-2.816a.162.162 0 0 0-.106.007l-.037.027a.412.412 0 0 0-.103.096.622.622 0 0 0-.094.16 14.73 14.73 0 0 1-1.003 2.053c-.23.377-.443.704-.637.981a4.74 4.74 0 0 1-.487.611 3.37 3.37 0 0 1-.357.315c-.106.08-.187.113-.243.1a7.024 7.024 0 0 1-.16-.036.613.613 0 0 1-.21-.224.982.982 0 0 1-.108-.356 3.823 3.823 0 0 1-.033-.37 7.518 7.518 0 0 1 .005-.437c.006-.189.01-.317.01-.383 0-.232.004-.483.013-.753.01-.271.017-.486.024-.644.006-.158.009-.325.009-.502 0-.176-.011-.314-.033-.415a1.394 1.394 0 0 0-.098-.292.496.496 0 0 0-.192-.219 1.1 1.1 0 0 0-.314-.123 6.38 6.38 0 0 0-1.265-.119c-1.162-.012-1.91.061-2.24.22a1.25 1.25 0 0 0-.356.273c-.113.134-.128.207-.047.219.375.055.64.186.796.392l.057.11c.043.08.087.22.13.42.045.2.073.423.085.666a6.95 6.95 0 0 1 0 1.14c-.031.317-.06.563-.089.74a1.45 1.45 0 0 1-.239.63.16.16 0 0 1-.047.045.719.719 0 0 1-.253.046c-.087 0-.193-.043-.318-.128a2.227 2.227 0 0 1-.39-.352 4.7 4.7 0 0 1-.454-.625 10.819 10.819 0 0 1-.525-.949l-.15-.264c-.093-.17-.221-.419-.384-.744-.162-.326-.306-.64-.43-.945a.603.603 0 0 0-.226-.292l-.047-.027a.647.647 0 0 0-.15-.078 1.015 1.015 0 0 0-.215-.059L3.6 7.457c-.262 0-.44.058-.534.174l-.038.054A.289.289 0 0 0 3 7.832c0 .066.019.149.056.246.375.858.783 1.685 1.223 2.482.44.797.823 1.439 1.148 1.925.325.487.656.947.994 1.378.337.432.56.71.67.83.11.123.195.214.257.275l.235.219c.15.146.37.32.66.524.291.204.613.405.966.603.353.197.764.359 1.232.483a4.37 4.37 0 0 0 1.369.151h1.077c.219-.018.385-.085.497-.2l.037-.047a.596.596 0 0 0 .07-.168.904.904 0 0 0 .033-.251 2.93 2.93 0 0 1 .061-.707c.047-.21.1-.368.16-.475a1.168 1.168 0 0 1 .36-.401.62.62 0 0 1 .075-.032c.15-.049.327-.002.53.141s.394.32.572.53c.178.21.392.445.642.707.25.261.468.456.656.584l.187.11c.125.072.288.14.488.2.2.061.374.076.524.046l2.4-.037c.237 0 .421-.038.552-.114.132-.076.21-.16.235-.25a.689.689 0 0 0 .004-.311 1.122 1.122 0 0 0-.065-.242z" id="a"/></defs><use fill="#fff" xlink:href="#a"/></svg>
